icons/lines/mobile.svg

<svg xmlns="http://www.w3.org/2000/svg" width="24" height="24" viewBox="0 0 24 24" fill="none" stroke="currentColor" stroke-width="2" stroke-linecap="round" stroke-linejoin="round" >
  <path d="M16.75 5.75V15.75C16.75 19.75 15.75 20.75 11.75 20.75H5.75C1.75 20.75 0.75 19.75 0.75 15.75V5.75C0.75 1.75 1.75 0.75 5.75 0.75H11.75C15.75 0.75 16.75 1.75 16.75 5.75Z"/>
  <path d="M10.75 4.25H6.75"/>
  <path d="M8.7502 17.85C9.60624 17.85 10.3002 17.156 10.3002 16.3C10.3002 15.444 9.60624 14.75 8.7502 14.75C7.89415 14.75 7.2002 15.444 7.2002 16.3C7.2002 17.156 7.89415 17.85 8.7502 17.85Z"/>
  </svg>

<svg xmlns="http://www.w3.org/2000/svg" width="24" height="24" viewBox="0 0 24 24" fill="none" stroke="currentColor" stroke-width="2" stroke-linecap="round" stroke-linejoin="round">
  <path d="M10.75 4.25h-4" />
  <path d="M16.75 15.75c0 4-1 5-5 5h-6c-4 0-5-1-5-5v-10c0-4 1-5 5-5h6c4 0 5 1 5 5z" />
  <circle cx="8.75" cy="16.3" r="1.55" />
</svg>
